public/flags/sy.svg

<?xml version="1.0" encoding="utf-8"?>
<!-- Uploaded to: SVG Repo, www.svgrepo.com, Generator: SVG Repo Mixer Tools -->
<svg width="800px" height="800px" viewBox="0 -4 28 28" fill="none" xmlns="http://www.w3.org/2000/svg">
<g clip-path="url(#clip0_503_4615)">
<rect x="0.25" y="0.25" width="27.5" height="19.5" rx="1.75" fill="white" stroke="#F5F5F5" stroke-width="0.5"/>
<mask id="mask0_503_4615" style="mask-type:alpha" maskUnits="userSpaceOnUse" x="0" y="0" width="28" height="20">
<rect x="0.25" y="0.25" width="27.5" height="19.5" rx="1.75" fill="white" stroke="white" stroke-width="0.5"/>
</mask>
<g mask="url(#mask0_503_4615)">
<path fill-rule="evenodd" clip-rule="evenodd" d="M0 20H28V13.3333H0V20Z" fill="#262626"/>
<path fill-rule="evenodd" clip-rule="evenodd" d="M0 6.66667H28V0H0V6.66667Z" fill="#E32139"/>
<path fill-rule="evenodd" clip-rule="evenodd" d="M9.33317 11.0933L7.76574 12.1574L8.29335 10.3378L6.79702 9.17593L8.69053 9.11545L9.33317 7.33331L9.97582 9.11545L11.8693 9.17593L10.373 10.3378L10.9006 12.1574L9.33317 11.0933Z" fill="#128A49"/>
<path fill-rule="evenodd" clip-rule="evenodd" d="M18.6667 11.0933L17.0992 12.1574L17.6268 10.3379L16.1305 9.17595L18.024 9.11547L18.6667 7.33333L19.3093 9.11547L21.2028 9.17595L19.7065 10.3379L20.2341 12.1574L18.6667 11.0933Z" fill="#128A49"/>
</g>
</g>
<defs>
<clipPath id="clip0_503_4615">
<rect width="28" height="20" rx="2" fill="white"/>
</clipPath>
</defs>
</svg>

<svg xmlns="http://www.w3.org/2000/svg" width="800" height="800" fill="none" viewBox="0 -4 28 28"><g clip-path="url(#a)"><rect width="27.5" height="19.5" x=".25" y=".25" fill="#fff" stroke="#f5f5f5" stroke-width=".5" rx="1.75"/><mask id="b" width="28" height="20" x="0" y="0" maskUnits="userSpaceOnUse" style="mask-type:alpha"><rect width="27.5" height="19.5" x=".25" y=".25" fill="#fff" stroke="#fff" stroke-width=".5" rx="1.75"/></mask><g fill-rule="evenodd" clip-rule="evenodd" mask="url(#b)"><path fill="#262626" d="M0 20h28v-6.667H0z"/><path fill="#e32139" d="M0 6.667h28V0H0z"/><path fill="#128a49" d="m9.333 11.093-1.567 1.064.527-1.82-1.496-1.161 1.894-.06.642-1.783.643 1.782 1.893.06-1.496 1.163.528 1.82zm9.334 0-1.568 1.064.528-1.82-1.496-1.161 1.893-.06.643-1.783.642 1.782 1.894.061-1.497 1.162.528 1.82z"/></g></g><defs><clipPath id="a"><rect width="28" height="20" fill="#fff" rx="2"/></clipPath></defs></svg>
